X:1
T:James Gibb editions
T:White as lilies - Morley
%%score [ 1 2 ]
L:1/8
Q:1/4=100
M:2/2
K:C
V:1 treble-8 nm="Tenor" snm="T"
V:2 bass nm="Lute"
V:1
"^Thomas Morley\n(1557-1602)""^White as lilies" d2 d2 e2 e2 | d2 d2 A4 | c3 d e2 e2 | B3 c d2 d2 | %4
w: White as li- lies|was her face,|When she smil- ed,|She be- guil- ed,|
w: For my heart though|set at nought,|Since ye will it,|Spoil and kill it!|
w: When I swore my|heart her own,|She dis- dain- ed,|I com- plain- ed,|
w: Vows and oaths and|faith as- sured,|Con- stant e- ver,|Chang- ing ne- ver,|
w: O that love should|have the art,|By sur- mis- es,|And dis- guis- es,|
[M:2/2][K:treble-8] A3 B c2 B2 | A2 G2 A2- A2 | A3 B c2 B2 | A2 G2 (^F2 D2) | B2 c2 d4- | %9
w: Quit- ting faith with|foul dis- grace *|Vir- tue, ser- vice|thus ne- glect- ed,|Heart with sor\-|
w: I will ne- ver|change my thought, ~But|grieve that beau- ty|e'er was born To|mur- ther faith|
w: Yet she left me|o- ver- thrown, *|Care- less of my|bit- ter griev- mg,|Ruth- less bent|
w: Yet she could not|be pro- cured, *|To be- lieve my|pains ex- ceed- ing,|From her scant|
w: To de- stroy a|faith- ful heart, *|Or that wan- ton-|look- ing wo- men,|Should re- ward|
 d2 B2 A3 G | G4 G4 | A3 B c2 B2 | A2 G2 ^F2 D2 | B2 c2 d4- | d2 B2 A3 G | (G4 G4-) | G8 |] %17
w: * row hath in-|fect- ed.|Vir- tue, ser- vice|thus ne- glect- ed,|Heart with sor\-|* row hath in-|fect- ed.||
w: * with fro- ward|scorn. But|grieve that beau- ty|e'er was born To|mur- ther faith|* with fro- ward|scorn. *||
w: * to no re-|liev- ing.|Care- less of my|bit- ter griev- ing,|Ruth- less bent|* to no re-|liev- ing.||
w: * ne- glect pro-|ceed- ing.|To be- lieve my|pains ex- ceed- ing,|From her scant|* ne- glect pro-|ceed- ing.||
w: * their friends as|foe- men.|Or that wan- ton-|look- ing wo- men,|Should re- ward|* their friends as|foe- men.||
V:2
 G,4 C,2 C,2 | G,4 D,4 | A,,3 B,, C,3 D, | E,2 E,2 B,,2 C,2 |[M:2/2] D,4 A,,2 G,,2 | D,2 E,2 D,4 | %6
 D,4 A,,2 G,,2 | D,2 E,2 D,C,B,,A,, | G,,2 A,,2 B,,2 C,2 | D,8 | G,,8 | D,4 A,,2 G,,2 | %12
 D,2 E,2 D,C,B,,A,, | G,,2 A,,2 B,,2 C,2 | D,8 | G,,8- | G,,8 |] %17

